src/assets/outline/Icon.svg

<svg width="24" height="24" viewBox="0 0 24 24"  xmlns="http://www.w3.org/2000/svg">
<path d="M20.2598 5.25C19.4298 5.25 18.7598 4.58 18.7598 3.75C18.7598 2.92 19.4298 2.25 20.2598 2.25H20.2697C21.0997 2.25 21.7697 2.92 21.7697 3.75C21.7697 4.58 21.0898 5.25 20.2598 5.25Z" />
<path d="M3.75977 21.75C2.92977 21.75 2.25977 21.08 2.25977 20.25C2.25977 19.42 2.92977 18.75 3.75977 18.75H3.76974C4.59974 18.75 5.26974 19.42 5.26974 20.25C5.26974 21.08 4.58977 21.75 3.75977 21.75Z" />
<path d="M6.03 16.4C5.78 16.4 5.53001 16.27 5.39001 16.04C4.65001 14.83 4.25 13.43 4.25 12C4.25 7.73 7.73 4.25 12 4.25C13.41 4.25 14.79 4.63001 15.99 5.35001C16.34 5.56001 16.46 6.02 16.25 6.38C16.04 6.73 15.58 6.85 15.22 6.64C14.25 6.06 13.14 5.75 12.01 5.75C8.56001 5.75 5.76001 8.55 5.76001 12C5.76001 13.15 6.07999 14.28 6.67999 15.26C6.89999 15.61 6.78999 16.07 6.42999 16.29C6.29999 16.37 6.16 16.4 6.03 16.4Z" />
<path d="M12.0001 19.7503C10.5601 19.7503 9.16013 19.3503 7.95013 18.6103C7.60013 18.3903 7.49013 17.9303 7.70013 17.5803C7.92013 17.2303 8.38012 17.1203 8.73012 17.3303C9.71012 17.9303 10.8401 18.2503 12.0001 18.2503C15.4501 18.2503 18.2501 15.4503 18.2501 12.0003C18.2501 10.8503 17.9301 9.72028 17.3301 8.74028C17.1101 8.39028 17.2201 7.93028 17.5801 7.71028C17.9301 7.50028 18.3901 7.60028 18.6101 7.96028C19.3501 9.18028 19.7501 10.5703 19.7501 12.0103C19.7501 16.2703 16.2701 19.7503 12.0001 19.7503Z" />
</svg>

<?xml version="1.0" encoding="UTF-8"?>
<svg width="24" height="24" viewBox="0 0 24 24" xmlns="http://www.w3.org/2000/svg">
 <path d="m20.26 5.25c-0.83 0-1.5-0.67-1.5-1.5s0.67-1.5 1.5-1.5h0.0099c0.83 0 1.5 0.67 1.5 1.5s-0.6799 1.5-1.5099 1.5z"/>
 <path d="m3.7598 21.75c-0.83 0-1.5-0.67-1.5-1.5s0.67-1.5 1.5-1.5h0.00997c0.83 0 1.5 0.67 1.5 1.5s-0.67997 1.5-1.51 1.5z"/>
 <path d="m6.03 16.4c-0.25 0-0.49999-0.13-0.63999-0.36-0.74-1.21-1.14-2.61-1.14-4.04 0-4.27 3.48-7.75 7.75-7.75 1.41 0 2.79 0.38001 3.99 1.1 0.35 0.21 0.47 0.66999 0.26 1.03-0.21 0.35-0.67 0.47-1.03 0.26-0.97-0.58-2.08-0.89-3.21-0.89-3.45 0-6.25 2.8-6.25 6.25 0 1.15 0.31998 2.28 0.91998 3.26 0.22 0.35 0.11 0.81-0.25 1.03-0.13 0.08-0.26999 0.11-0.39999 0.11z"/>
 <path d="m12 19.75c-1.44 0-2.84-0.4-4.05-1.14-0.35-0.22-0.46-0.68-0.25-1.03 0.22-0.35 0.67999-0.46 1.03-0.25 0.98 0.6 2.11 0.92 3.27 0.92 3.45 0 6.25-2.8 6.25-6.25 0-1.15-0.32-2.28-0.92-3.26-0.22-0.35-0.11-0.81 0.25-1.03 0.35-0.21 0.81-0.11 1.03 0.25 0.74 1.22 1.14 2.61 1.14 4.05 0 4.26-3.48 7.74-7.75 7.74z"/>
</svg>
